X:1
L:1/4
Q:1/4=108
M:2/4
V:1
V:2 clef=bass
K:F
[V:1] A/4c/4d/4e/4 f/4e/4d/4c/4 | B/4d/4e/4f/4 g/4f/4e/4d/4 | g/4e/4d/4c/4 B/4c/4d/4e/4 | f/4d/4c/4B/4 A/4B/4c/4d/4 |
[V:2] A,/4C/4D/4E/4 F/4E/4D/4C/4 | B,/4D/4E/4F/4 G/4F/4E/4D/4 | G/4E/4D/4C/4 B,/4C/4D/4E/4 | F/4D/4C/4B,/4 A,/4B,/4C/4D/4 |